X:1
T:Christum wir sollen loben schon oder: Was fürcht'st du, Feind Herodes, sehr.
T:Christum wir sollen loben schon oder: Was fürcht'st du, Feind Herodes, sehr. 
T:Fughetta
T:Johann Sebastian Bach (1685-1750)
T:BWV 696
C:Johann Sebastian Bach (1685-1750)
Z:BWV 696
%%score { ( 1 2 ) | ( 3 4 ) } { ( 5 6 ) | ( 7 8 ) } 9
L:1/8
Q:1/4=72
M:4/4
K:C
V:1 treble nm="Orgel"
V:2 treble 
V:3 bass 
V:4 bass 
V:5 treble nm="Orgel"
V:6 treble 
V:7 bass 
V:8 bass 
V:9 bass nm="Orgel"
V:1
 z8 | z8 | z8 | z8 | z8 | z8 | z8 | z4 z2 A2 | c2 c2 d2 e2- | e Ad=c BA _B2- | B Ad=c _B4 | %11
 A6 G2- | G2 F3 EAG | F2 z2 z4 | z8 | z4 D4 | F2 F2 G2 A2- | %17
 A DG=F[Q:1/4=72] E4-[Q:1/4=71]"^.9"[Q:1/4=71]"^.7"[Q:1/4=71]"^.3" | %18
[Q:1/4=70]"^.6" E4-[Q:1/4=69][Q:1/4=68][Q:1/4=66][Q:1/4=64]"^.5" E[Q:1/4=62] A,[Q:1/4=59]"^.1"E[Q:1/4=55]"^.8"^D | %19
[Q:1/4=52] !fermata!E8 |] %20
V:2
 z8 | z8 | z8 | z8 | z2 D2 F2 F2 | G2 A3 DG=F | ED _E2 D4- | D B,ED C2 F2- | F EAG FDGF | %9
 E^CFE DE/=F/ ED | ^C2 DE FDGF | =EA,D=C =B,2 _B,2 | A,^C D4 ^C2 | DA, _B,3 A,DC | %14
 _B,G,CB, A,^F,_B,A, | G,A,/_B,/ C2- C3 _B, | C2 A,2 D2 C2- | C_B,/A,/ G,A, =B,4- | %18
 B,"^.6" E,"^.2"A,"^.5"G, ^F,4 | ^G,8 |] %20
V:3
 z8 | z8 | z2 A,2 C2 C2 | D2 E3 A,D=C | B,A, B,3 A,DC | _B,G,CB, A,^F,B,A, | %6
 G,A,/_B,/ A,G, ^F,2 ^G,A, | =B,4- B,A, D2 | C2 FE DC B,2 | ^CE A,2 B,^C/D/ G,2- | G,2 A,4 G,2- | %11
 G,2 F,3 =B,,E,D, | ^C,E,F,G, A,4- |"_(Pedal)" A,2 z D, =C,2 F,2- | F,2 _E,D, ^C,D,=E,=F, | %15
 G,3 A, D,2 G,2 | F,2 F,4 E,D, | C, D,2 D,- D,=B,,E,D, | ^C,4 =C,4 | B,,8 |] %20
V:4
 D,4 F,2 F,2 | G,2 A,3 D,G,F, | E,C, F,3 E,A,G, | F,D,G,F, E,^C,F,E, | D,E,/F,/ G,G,, D,4- | D,8- | %6
 D,2 =C,2- C,^F,,=B,,A,, | ^G,,3 E,, A,,=G,,F,,D,, | A,,2 A,4 G,2- | G,2 F,^F, G,3 =F, | %10
 E,2 F,E, D,_B,,_E,D, | ^C,2 D,2 G,,4 | A,,4 z4 | D,,4 F,,2 F,,2 | G,,2 A,,3 D,,G,,F,, | %15
 E,,D,,E,,^F,, G,,A,, _B,,2- | _B,, A,,D,C, B,,G,,C,B,, | A,,^F,,_B,,A,, ^G,,4 | A,,8 | %19
 !fermata!E,,8 |] %20
V:5
 z8 | z8 | z8 | z8 | z8 | z8 | z8 | z4 z2 A2 | c2 c2 d2 e2- | e A d =c B A _B2- | B A d =c _B4 | %11
 A6 G2- | G2 F3 E A G | F2 z2 z4 | z8 | z4 D4 | F2 F2 G2 A2- | A D G =F E4- | E4- E A, E ^D | %19
 !fermata!E8 |] %20
V:6
 z8 | z8 | z8 | z8 | z2 D2 F2 F2 | G2 A3 D G =F | E D _E2 D4- | D B, E D C2 F2- | F E A G F D G F | %9
 E ^C F E D E/ =F/ E D | ^C2 D E F D G F | =E A, D =C =B,2 _B,2 | A, ^C D4 ^C2 | D A, _B,3 A, D C | %14
 _B, G, C B, A, ^F, _B, A, | G, A,/ _B,/ C2- C3 _B, | C2 A,2 D2 C2- | C _B,/ A,/ G, A, =B,4- | %18
 B, E, A, G, ^F,4 | ^G,8 |] %20
V:7
 z8 | z8 | z2 A,2 C2 C2 | D2 E3 A, D =C | B, A, B,3 A, D C | _B, G, C B, A, ^F, B, A, | %6
 G, A,/ _B,/ A, G, ^F,2 ^G, A, | =B,4- B, A, D2 | C2 F E D C B,2 | ^C E A,2 B, ^C/ D/ G,2- | %10
 G,2 A,4 G,2- | G,2 F,3 =B,, E, D, | ^C, E, F, G, A,4- | A,2 z D, =C,2 F,2- | %14
 F,2 _E, D, ^C, D, =E, =F, | G,3 A, D,2 G,2 | F,2 F,4 E, D, | C, D,2 D,- D, =B,, E, D, | %18
 ^C,4 =C,4 | B,,8 |] %20
V:8
 D,4 F,2 F,2 | G,2 A,3 D, G, F, | E, C, F,3 E, A, G, | F, D, G, F, E, ^C, F, E, | %4
 D, E,/ F,/ G, G,, D,4- | D,8- | D,2 =C,2- C, ^F,, =B,, A,, | ^G,,3 E,, A,, =G,, F,, D,, | %8
 A,,2 A,4 G,2- | G,2 F, ^F, G,3 =F, | E,2 F, E, D, _B,, _E, D, | ^C,2 D,2 G,,4 | A,,4 z4 | %13
 D,,4 F,,2 F,,2 | G,,2 A,,3 D,, G,, F,, | E,, D,, E,, ^F,, G,, A,, _B,,2- | %16
 _B,, A,, D, C, B,, G,, C, B,, | A,, ^F,, _B,, A,, ^G,,4 | A,,8 | !fermata!E,,8 |] %20
V:9
 z8 | z8 | z8 | z8 | z8 | z8 | z8 | z8 | z8 | z8 | z8 | z8 | z8 | D,,4 F,,2 F,,2 | %14
 G,,2 A,,3 D,, G,, F,, | E,, D,, E,, ^F,, G,, A,, _B,,2- | _B,, A,, D, C, B,, G,, C, B,, | %17
 A,, ^F,, _B,, A,, ^G,,4 | A,,8 | E,,8 |] %20

